img/svg/reddit.svg

<svg width="48" height="48" viewBox="0 0 48 48" xmlns="http://www.w3.org/2000/svg">
    <path fill-rule="evenodd" clip-rule="evenodd"
        d="M48 24C48 37.2548 37.2548 48 24 48C10.7452 48 0 37.2548 0 24C0 10.7452 10.7452 0 24 0C37.2548 0 48 10.7452 48 24ZM36.4912 20.4912C38.4281 20.4912 40 22.0631 40 24C40 25.4315 39.1298 26.6666 37.979 27.228C38.0351 27.5649 38.0632 27.9017 38.0632 28.2666C38.0632 33.6561 31.8035 38.007 24.0562 38.007C16.3088 38.007 10.0491 33.6561 10.0491 28.2666C10.0491 27.9017 10.0772 27.5368 10.1333 27.2C8.89826 26.6385 8.05615 25.4315 8.05615 24C8.05615 22.0631 9.62808 20.4912 11.5649 20.4912C12.4912 20.4912 13.3614 20.8842 13.979 21.4736C16.393 19.7052 19.7333 18.6105 23.4667 18.4982L25.2351 10.1333C25.2912 9.96486 25.3755 9.82451 25.5158 9.7403C25.6562 9.65609 25.8246 9.62802 25.993 9.65609L31.8035 10.8912C32.1965 10.0491 33.0386 9.48767 34.0211 9.48767C35.3965 9.48767 36.5193 10.6105 36.5193 11.9859C36.5193 13.3614 35.3965 14.4842 34.0211 14.4842C32.6737 14.4842 31.579 13.4175 31.5228 12.0982L26.3298 11.0035L24.7298 18.4982C28.379 18.6385 31.6912 19.7614 34.0772 21.4736C34.6948 20.8561 35.5369 20.4912 36.4912 20.4912ZM18.4983 24C17.1228 24 16 25.1228 16 26.4982C16 27.8736 17.1228 28.9964 18.4983 28.9964C19.8737 28.9964 20.9965 27.8736 20.9965 26.4982C20.9965 25.1228 19.8737 24 18.4983 24ZM24.0281 34.9193C24.9825 34.9193 28.2386 34.807 29.9509 33.0947C30.2035 32.8421 30.2035 32.4491 30.007 32.1684C29.7544 31.9157 29.3333 31.9157 29.0807 32.1684C27.986 33.235 25.7123 33.628 24.0562 33.628C22.4 33.628 20.0983 33.235 19.0316 32.1684C18.779 31.9157 18.3579 31.9157 18.1053 32.1684C17.8526 32.421 17.8526 32.8421 18.1053 33.0947C19.7895 34.7789 23.0737 34.9193 24.0281 34.9193ZM27.0035 26.4982C27.0035 27.8736 28.1263 28.9964 29.5018 28.9964C30.8772 28.9964 32 27.8736 32 26.4982C32 25.1228 30.8772 24 29.5018 24C28.1263 24 27.0035 25.1228 27.0035 26.4982Z"/>
</svg>

<svg width="48" height="48" viewBox="0 0 48 48" xmlns="http://www.w3.org/2000/svg"><path fill-rule="evenodd" clip-rule="evenodd" d="M48 24c0 13.255-10.745 24-24 24S0 37.255 0 24 10.745 0 24 0s24 10.745 24 24zm-11.509-3.509A3.51 3.51 0 0140 24c0 1.431-.87 2.667-2.021 3.228.056.337.084.674.084 1.039 0 5.39-6.26 9.74-14.007 9.74s-14.007-4.35-14.007-9.74c0-.365.028-.73.084-1.067-1.235-.561-2.077-1.768-2.077-3.2a3.51 3.51 0 013.509-3.509 3.54 3.54 0 012.414.983c2.414-1.769 5.754-2.864 9.488-2.976l1.768-8.365c.056-.168.14-.308.28-.393a.704.704 0 01.478-.084l5.81 1.235a2.428 2.428 0 012.218-1.403 2.504 2.504 0 012.498 2.498 2.504 2.504 0 01-2.498 2.498 2.501 2.501 0 01-2.498-2.386l-5.193-1.095-1.6 7.495c3.649.14 6.961 1.263 9.347 2.976a3.37 3.37 0 012.414-.983zM18.498 24A2.504 2.504 0 0016 26.498a2.504 2.504 0 002.498 2.498 2.504 2.504 0 002.498-2.498A2.504 2.504 0 0018.498 24zm5.53 10.92c.955 0 4.21-.113 5.923-1.825.252-.253.252-.646.056-.927a.66.66 0 00-.926 0c-1.095 1.067-3.369 1.46-5.025 1.46-1.656 0-3.958-.393-5.024-1.46a.66.66 0 00-.927 0 .66.66 0 000 .927c1.684 1.684 4.969 1.824 5.923 1.824zm2.976-8.422a2.504 2.504 0 002.498 2.498A2.504 2.504 0 0032 26.498 2.504 2.504 0 0029.502 24a2.504 2.504 0 00-2.498 2.498z"/></svg>
